src/images/pages/header/wallets/ic-wallets-combined-xrp.svg

<svg width="60" height="32" viewBox="0 0 60 32" fill="none" xmlns="http://www.w3.org/2000/svg">
<path d="M20 12C20 9.79086 21.7909 8 24 8H56C58.2091 8 60 9.79086 60 12V28C60 30.2091 58.2091 32 56 32H24C21.7909 32 20 30.2091 20 28V12Z" fill="white"/>
<path d="M20 12C20 9.79086 21.7909 8 24 8H56C58.2091 8 60 9.79086 60 12V28C60 30.2091 58.2091 32 56 32H24C21.7909 32 20 30.2091 20 28V12Z" fill="url(#paint0_radial_8816_3418)"/>
<path d="M37.975 20C37.975 22.4853 35.9603 24.5 33.475 24.5C30.9897 24.5 28.975 22.4853 28.975 20C28.975 17.5147 30.9897 15.5 33.475 15.5C35.9603 15.5 37.975 17.5147 37.975 20Z" fill="#171C21"/>
<path d="M35.7166 18.1381H35.0657L34.037 19.1562C33.7266 19.4634 33.2233 19.4634 32.9128 19.1562L31.8842 18.1381H31.2333L32.5874 19.4782C33.0776 19.9633 33.8723 19.9633 34.3625 19.4782L35.7166 18.1381Z" fill="white"/>
<path d="M31.225 21.8647H31.8759L32.9129 20.8383C33.2233 20.5311 33.7267 20.5311 34.0371 20.8383L35.0742 21.8647H35.725L34.3625 20.5163C33.8724 20.0312 33.0776 20.0312 32.5875 20.5163L31.225 21.8647Z" fill="white"/>
<path d="M42.5495 18.3521H43.1128L41.9404 19.5373C41.516 19.9665 40.8285 19.9665 40.404 19.5373L39.2321 18.3521H39.7954L40.6859 19.2526C40.9503 19.5212 41.3828 19.5245 41.6515 19.2601C41.6538 19.2577 41.6567 19.2549 41.659 19.2526L42.5495 18.3521ZM39.7883 21.6479H39.225L40.4045 20.4552C40.8289 20.026 41.5164 20.026 41.9409 20.4552L43.1199 21.6479H42.5566L41.659 20.7404C41.3946 20.4717 40.9621 20.4684 40.6934 20.7328C40.6911 20.7352 40.6882 20.738 40.6859 20.7404L39.7883 21.6479Z" fill="#23292F"/>
<path d="M49.9754 18.3521C50.1194 18.355 50.2544 18.3833 50.38 18.4371C50.508 18.4876 50.6203 18.558 50.7162 18.6477C50.813 18.7379 50.8885 18.8441 50.9428 18.9659C50.9976 19.0859 51.025 19.2129 51.025 19.347C51.025 19.4839 50.9962 19.6142 50.9381 19.737C50.8838 19.8565 50.8064 19.9622 50.7072 20.0548C50.6109 20.1445 50.4966 20.2163 50.3663 20.2696C50.2374 20.3206 50.0986 20.3461 49.9513 20.3461H48.7217V21.6365H48.2892V18.3521H49.9754ZM49.9513 19.9481C50.0382 19.9481 50.1203 19.9325 50.1982 19.9013C50.2771 19.8702 50.3455 19.8272 50.4041 19.7724C50.4626 19.7181 50.5094 19.6534 50.5424 19.5807C50.576 19.5085 50.5925 19.4306 50.5925 19.347C50.5925 19.2662 50.576 19.1898 50.5424 19.1175C50.5094 19.0453 50.4622 18.9801 50.4041 18.9258C50.3455 18.871 50.2771 18.8285 50.1982 18.7969C50.1203 18.7657 50.0382 18.7502 49.9513 18.7502H48.7217V19.9481H49.9513Z" fill="#23292F"/>
<path d="M45.1469 20.3532C45.3637 20.3532 45.5691 20.4448 45.705 20.6025L46.5984 21.637H47.1546L45.9326 20.203C45.7966 20.0434 45.5903 19.9504 45.3717 19.9504H44.5251V18.7554H45.7546C45.8415 18.7554 45.9237 18.7709 46.0016 18.8021C46.0804 18.8337 46.1489 18.8767 46.2074 18.931L46.2084 18.9319C46.2664 18.9834 46.3122 19.0453 46.3458 19.1185C46.3793 19.1907 46.3958 19.2686 46.3958 19.3527C46.3958 19.4362 46.3788 19.5141 46.3458 19.5864C46.3255 19.6284 46.3009 19.6681 46.2716 19.7044L46.5531 20.0184C46.5564 20.0146 46.5601 20.0109 46.5634 20.0071C46.6465 19.9174 46.7108 19.8177 46.7556 19.7073C46.8038 19.5958 46.8279 19.4773 46.8279 19.3522C46.8279 19.2181 46.8005 19.0906 46.7457 18.9707C46.6914 18.8484 46.6159 18.7421 46.5191 18.652C46.4227 18.5622 46.3108 18.4909 46.1833 18.4371C46.0573 18.3833 45.9222 18.355 45.7778 18.3521H44.3079C44.2484 18.3521 44.1965 18.3743 44.154 18.4145C44.1129 18.4527 44.0916 18.4999 44.0916 18.5537V21.6365H44.5241V20.3532H45.1469Z" fill="#23292F"/>
<g clip-path="url(#clip0_8816_3418)">
<path d="M0 4.5C0 2.01472 2.01472 0 4.5 0H19.5C21.9853 0 24 2.01472 24 4.5V19.5C24 21.9853 21.9853 24 19.5 24H4.5C2.01472 24 0 21.9853 0 19.5V4.5Z" fill="#414652"/>
<path d="M12.75 14.25C12.75 13.425 13.425 12.75 14.25 12.75H17.25C18.075 12.75 18.75 13.425 18.75 14.25V17.25C18.75 18.075 18.075 18.75 17.25 18.75H14.25C13.425 18.75 12.75 18.075 12.75 17.25V14.25Z" fill="#EF8933"/>
<path d="M5.25 14.25C5.25 13.425 5.925 12.75 6.75 12.75H9.75C10.575 12.75 11.25 13.425 11.25 14.25V17.25C11.25 18.075 10.575 18.75 9.75 18.75H6.75C5.925 18.75 5.25 18.075 5.25 17.25V14.25Z" fill="#4B6FA8"/>
<path d="M12.75 6.75C12.75 5.925 13.425 5.25 14.25 5.25H17.25C18.075 5.25 18.75 5.925 18.75 6.75V9.75C18.75 10.575 18.075 11.25 17.25 11.25H14.25C13.425 11.25 12.75 10.575 12.75 9.75V6.75Z" fill="#76C0E3"/>
<path d="M5.25 6.75C5.25 5.925 5.925 5.25 6.75 5.25H9.75C10.575 5.25 11.25 5.925 11.25 6.75V9.75C11.25 10.575 10.575 11.25 9.75 11.25H6.75C5.925 11.25 5.25 10.575 5.25 9.75V6.75Z" fill="#FF444F"/>
<path d="M4.5 0C2.01472 0 0 2.01472 0 4.5V4.63071L22.4358 1.08948C21.6478 0.4105 20.6218 0 19.5 0H4.5Z" fill="#303541"/>
<path d="M22.899 1.55081L18.7833 24L19.5 24C21.9853 24 24 21.9853 24 19.5V4.5C24 3.37182 23.5848 2.34061 22.899 1.55081Z" fill="#303541"/>
</g>
<defs>
<radialGradient id="paint0_radial_8816_3418" cx="0" cy="0" r="1" gradientUnits="userSpaceOnUse" gradientTransform="translate(20 32) rotate(-30.9638) scale(46.6476 77.746)">
<stop stop-color="#6C6A97" stop-opacity="0.28"/>
<stop offset="1" stop-color="#323063" stop-opacity="0.48"/>
</radialGradient>
<clipPath id="clip0_8816_3418">
<rect width="24" height="24" fill="white"/>
</clipPath>
</defs>
</svg>

<svg xmlns="http://www.w3.org/2000/svg" width="60" height="32" fill="none"><path fill="#fff" d="M20 12a4 4 0 0 1 4-4h32a4 4 0 0 1 4 4v16a4 4 0 0 1-4 4H24a4 4 0 0 1-4-4z"/><path fill="url(#a)" d="M20 12a4 4 0 0 1 4-4h32a4 4 0 0 1 4 4v16a4 4 0 0 1-4 4H24a4 4 0 0 1-4-4z"/><path fill="#171C21" d="M37.975 20a4.5 4.5 0 1 1-9 0 4.5 4.5 0 0 1 9 0"/><path fill="#fff" d="M35.717 18.138h-.651l-1.029 1.018a.8.8 0 0 1-1.124 0l-1.029-1.018h-.65l1.353 1.34c.49.485 1.285.485 1.775 0zM31.225 21.865h.65l1.038-1.027a.8.8 0 0 1 1.124 0l1.037 1.027h.651l-1.363-1.349a1.264 1.264 0 0 0-1.775 0z"/><path fill="#23292F" d="M42.55 18.352h.563l-1.173 1.185c-.424.43-1.111.43-1.536 0l-1.172-1.185h.563l.89.9a.683.683 0 0 0 .966.008l.008-.007zm-2.762 3.296h-.563l1.18-1.193a1.08 1.08 0 0 1 1.536 0l1.179 1.193h-.563l-.898-.908a.683.683 0 0 0-.966-.007l-.007.007zM49.975 18.352q.217.004.405.085.192.076.336.21a.97.97 0 0 1 .309.7.9.9 0 0 1-.087.39 1 1 0 0 1-.23.318q-.145.134-.342.215a1.1 1.1 0 0 1-.415.076h-1.23v1.29h-.432v-3.284zm-.024 1.596a.66.66 0 0 0 .591-.367.55.55 0 0 0 0-.463.6.6 0 0 0-.344-.321.7.7 0 0 0-.247-.047h-1.23v1.198zM45.147 20.353c.217 0 .422.092.558.25l.893 1.034h.557l-1.222-1.434a.74.74 0 0 0-.561-.253h-.847v-1.195h1.23a.66.66 0 0 1 .452.176h.001a.56.56 0 0 1 .188.422.56.56 0 0 1-.124.351l.281.314.01-.01a.98.98 0 0 0 .265-.656.966.966 0 0 0-.309-.7 1.13 1.13 0 0 0-.741-.3h-1.47a.22.22 0 0 0-.154.063.19.19 0 0 0-.062.139v3.083h.432v-1.284z"/><g clip-path="url(#b)"><path fill="#414652" d="M0 4.5A4.5 4.5 0 0 1 4.5 0h15A4.5 4.5 0 0 1 24 4.5v15a4.5 4.5 0 0 1-4.5 4.5h-15A4.5 4.5 0 0 1 0 19.5z"/><path fill="#EF8933" d="M12.75 14.25c0-.825.675-1.5 1.5-1.5h3c.825 0 1.5.675 1.5 1.5v3c0 .825-.675 1.5-1.5 1.5h-3c-.825 0-1.5-.675-1.5-1.5z"/><path fill="#4B6FA8" d="M5.25 14.25c0-.825.675-1.5 1.5-1.5h3c.825 0 1.5.675 1.5 1.5v3c0 .825-.675 1.5-1.5 1.5h-3c-.825 0-1.5-.675-1.5-1.5z"/><path fill="#76C0E3" d="M12.75 6.75c0-.825.675-1.5 1.5-1.5h3c.825 0 1.5.675 1.5 1.5v3c0 .825-.675 1.5-1.5 1.5h-3c-.825 0-1.5-.675-1.5-1.5z"/><path fill="#FF444F" d="M5.25 6.75c0-.825.675-1.5 1.5-1.5h3c.825 0 1.5.675 1.5 1.5v3c0 .825-.675 1.5-1.5 1.5h-3c-.825 0-1.5-.675-1.5-1.5z"/><path fill="#303541" d="M4.5 0A4.5 4.5 0 0 0 0 4.5v.13l22.436-3.54A4.48 4.48 0 0 0 19.5 0zM22.899 1.55 18.783 24h.717a4.5 4.5 0 0 0 4.5-4.5v-15c0-1.128-.415-2.16-1.101-2.95"/></g><defs><radialGradient id="a" cx="0" cy="0" r="1" gradientTransform="matrix(39.99997 -24.00002 40.00004 66.66661 20 32)" gradientUnits="userSpaceOnUse"><stop stop-color="#6C6A97" stop-opacity=".28"/><stop offset="1" stop-color="#323063" stop-opacity=".48"/></radialGradient><clipPath id="b"><path fill="#fff" d="M0 0h24v24H0z"/></clipPath></defs></svg>
